static/assets/images/flags/1x1/mk.svg

<svg height="512" width="512" xmlns="http://www.w3.org/2000/svg"><path d="m0 0h512v512h-512z" fill="#d20000"/><g fill="#ffe600"><path d="m0 0h86.8l169.2 246.9 169.2-246.9h86.8l-512 512h86.8l169.2-246.9 169.2 246.9h86.8zm512 204.8v102.4l-512-102.4v102.4zm-307.2-204.8 51.2 219.4 51.2-219.4zm0 512 51.2-219.4 51.2 219.4z"/><circle cx="256" cy="256" r="82.3" stroke="#d20000" stroke-width="18.3"/></g></svg>

<svg xmlns="http://www.w3.org/2000/svg" id="flag-icon-css-mk" width="512" height="512">
  <path fill="#d20000" d="M0 0h512v512H0z"/>
  <path fill="#ffe600" d="M0 0h86.8L256 246.9 425.2 0H512L0 512h86.8L256 265.1 425.2 512H512zm512 204.8v102.4L0 204.8v102.4zM204.8 0L256 219.4 307.2 0zm0 512L256 292.6 307.2 512z"/>
  <circle cx="256" cy="256" r="82.3" fill="#ffe600" stroke="#d20000" stroke-width="18.3"/>
</svg>
